X:7
T:Kirkmichael Plows
S:Petrie's Collection of Strathspey Reels and Country Dances &c., 1790
Z:Steve Wyrick <sjwyrick'at'gmail'dot'com>, 3/5/04
N:Petrie's First Collection, page 4
L:1/8
M:C
R:Strathspey
K:Bb
d|B2     F<D   B>cd>c      |B<GTF>D      c<CC>c|\
  B2     F<D   Bc{Bc}d>c   |B>G F/G/F/E/ DC B,:|
g|f<B {e}dc/B/ F>B {e}dc/B/|E<BD>B       c<CC>g|\
  f<B {e}dc/B/ FB {e}dc/B/ |EF/G/ TF>E   DB,B,g|
  f>B {e}dc/B/ F>B {e}dc/B/|E<BD>B       c<CC>f|\
  g<ef<d       e<cd<A      |BG F/G/F/E/  DB,B,|]
